X: 5
T:L'AMOR HIER
M:3/4
L:1/8
Q:1/4=106
C:Yves BELOTTEAU
R:Valse
K:C
|EAB c2c|dcB c2c|dcB A3|BAG E2E|
FAF E2E|cAc B2B|FAF E2E|cAc d z E|!
|:cBc A2E|F2E D2C|B,DA G2F|E2D C2B,|
1A,CF EFE|DCB, C2A,:|2A,CF EDE|c2B A3|
